public/avatar/body/9.svg

<svg xmlns:xlink="http://www.w3.org/1999/xlink" height="82" width="84.85" xmlns="http://www.w3.org/2000/svg"><g transform="translate(37.4 42.25)"><use height="38" transform="translate(-11.95 -17.45)" width="32.05" xlink:href="#a"/><use height="10.55" transform="translate(-1.7 9.95)" width="12.4" xlink:href="#b"/><use height="38.95" transform="translate(-12.45 -17.95)" width="33.05" xlink:href="#c"/><use height="11.05" transform="rotate(55.299 10.044 -19.555) scale(.9986)" width="14.8" xlink:href="#d"/><use height="11.05" transform="matrix(-.5994 .7981 .7981 .5994 20.306 -16.683)" width="14.8" xlink:href="#d"/></g><defs><path d="M27.35 7.4q2.15 4.15 3.55 8.75 1.45 4.7 1.15 9.5-.35 4.95-4.2 8.1-3.8 3.2-8.75 4.05l-2.6.2q-3.6 0-7.05-1.15-4.65-1.6-7.1-5.5Q-.2 27.4.05 23q.2-4.4 2-9.3Q3.85 8.75 7 5.05 10.1 1.3 14.7.1l1.8-.1q1.9.05 3.7.8 4.75 2.05 7.15 6.6" fill="#fff" fill-rule="evenodd" transform="translate(-.05)" id="e"/><path d="M7.1 20.35q-4 .5-7.65-.6-1.15-1.55-1.15-3.6 0-2.55 1.8-4.4 1.85-1.8 4.4-1.8 2.55 0 4.35 1.8 1.85 1.85 1.85 4.4 0 2.05-1.2 3.65l-2.4.55" fill="#c00" fill-rule="evenodd" transform="translate(1.7 -9.95)" id="b"/><path d="M27.35 7.4Q24.95 2.85 20.2.8 17.55-.3 14.7.1 10.1 1.3 7 5.05q-3.15 3.7-4.95 8.65-1.8 4.9-2 9.3-.25 4.4 2.3 8.35 2.45 3.9 7.1 5.5 4.65 1.55 9.65.95 4.95-.85 8.75-4.05 3.85-3.15 4.2-8.1.3-4.8-1.15-9.5-1.4-4.6-3.55-8.75Z" fill="none" stroke="#000" stroke-linecap="round" stroke-linejoin="round" transform="translate(.45 .5)" id="f"/><use height="38" width="32.05" xlink:href="#e" id="a"/><use height="38.95" width="33.05" xlink:href="#f" id="c"/><use height="11.05" width="14.8" xlink:href="#g" id="d"/><g id="g"><path d="M-6.9-3.2v-.3l3.95-.7 3.9 7.85L-4.3 1.5l-2.6-4.7" fill="#c00" fill-rule="evenodd" transform="translate(7.4 5.55)"/><path d="m-2.95-4.2 4.65-.85L6.9 2.9 4.4 5 .95 3.65l-3.9-7.85" fill="#fff" fill-rule="evenodd" transform="translate(7.4 5.55)"/><path d="m-6.9-3.5 3.95-.7 4.65-.85M6.9 2.9 4.4 5 .95 3.65-4.3 1.5l-2.6-4.7" fill="none" stroke="#000" stroke-linecap="round" stroke-linejoin="round" transform="translate(7.4 5.55)"/></g></defs></svg>

<?xml version="1.0" encoding="UTF-8" standalone="no"?>
<svg xmlns:xlink="http://www.w3.org/1999/xlink" height="82.0px" width="84.85px" xmlns="http://www.w3.org/2000/svg">
  <g transform="matrix(1.0, 0.0, 0.0, 1.0, 37.4, 42.25)">
    <use height="38.0" transform="matrix(1.0, 0.0, 0.0, 1.0, -11.95, -17.45)" width="32.05" xlink:href="#sprite0"/>
    <use height="10.55" transform="matrix(1.0, 0.0, 0.0, 1.0, -1.7, 9.95)" width="12.4" xlink:href="#shape1"/>
    <use height="38.95" transform="matrix(1.0, 0.0, 0.0, 1.0, -12.45, -17.95)" width="33.05" xlink:href="#sprite1"/>
    <use height="11.05" transform="matrix(0.5685, 0.821, -0.821, 0.5685, -11.7508, -16.6804)" width="14.8" xlink:href="#sprite2"/>
    <use height="11.05" transform="matrix(-0.5994, 0.7981, 0.7981, 0.5994, 20.3062, -16.6831)" width="14.8" xlink:href="#sprite2"/>
  </g>
  <defs>
    <g id="sprite0" transform="matrix(1.0, 0.0, 0.0, 1.0, -0.05, 0.0)">
      <use height="38.0" transform="matrix(1.0, 0.0, 0.0, 1.0, 0.05, 0.0)" width="32.05" xlink:href="#shape0"/>
    </g>
    <g id="shape0" transform="matrix(1.0, 0.0, 0.0, 1.0, -0.05, 0.0)">
      <path d="M27.35 7.4 Q29.5 11.55 30.9 16.15 32.35 20.85 32.05 25.65 31.7 30.6 27.85 33.75 24.05 36.95 19.1 37.8 L16.5 38.0 Q12.9 38.0 9.45 36.85 4.8 35.25 2.35 31.35 -0.2 27.4 0.05 23.0 0.25 18.6 2.05 13.7 3.85 8.75 7.0 5.05 10.1 1.3 14.7 0.1 L16.5 0.0 Q18.4 0.05 20.2 0.8 24.95 2.85 27.35 7.4" fill="#ffffff" fill-rule="evenodd" stroke="none"/>
    </g>
    <g id="shape1" transform="matrix(1.0, 0.0, 0.0, 1.0, 1.7, -9.95)">
      <path d="M7.1 20.35 Q3.1 20.85 -0.55 19.75 -1.7 18.2 -1.7 16.15 -1.7 13.6 0.1 11.75 1.95 9.95 4.5 9.95 7.05 9.95 8.85 11.75 10.7 13.6 10.7 16.15 10.7 18.2 9.5 19.8 L7.1 20.35" fill="#cc0000" fill-rule="evenodd" stroke="none"/>
    </g>
    <g id="sprite1" transform="matrix(1.0, 0.0, 0.0, 1.0, 0.45, 0.5)">
      <use height="38.95" transform="matrix(1.0, 0.0, 0.0, 1.0, -0.45, -0.5)" width="33.05" xlink:href="#shape2"/>
    </g>
    <g id="shape2" transform="matrix(1.0, 0.0, 0.0, 1.0, 0.45, 0.5)">
      <path d="M27.35 7.4 Q24.95 2.85 20.2 0.8 17.55 -0.3 14.7 0.1 10.1 1.3 7.0 5.05 3.85 8.75 2.05 13.7 0.25 18.6 0.05 23.0 -0.2 27.4 2.35 31.35 4.8 35.25 9.45 36.85 14.1 38.4 19.1 37.8 24.05 36.95 27.85 33.75 31.7 30.6 32.05 25.65 32.35 20.85 30.9 16.15 29.5 11.55 27.35 7.4 Z" fill="none" stroke="#000000" stroke-linecap="round" stroke-linejoin="round" stroke-width="1.0"/>
    </g>
    <g id="sprite2" transform="matrix(1.0, 0.0, 0.0, 1.0, 7.4, 5.55)">
      <use height="11.05" transform="matrix(1.0, 0.0, 0.0, 1.0, -7.4, -5.55)" width="14.8" xlink:href="#shape3"/>
    </g>
    <g id="shape3" transform="matrix(1.0, 0.0, 0.0, 1.0, 7.4, 5.55)">
      <path d="M-6.9 -3.2 L-6.9 -3.5 -2.95 -4.2 0.95 3.65 -4.3 1.5 -6.9 -3.2" fill="#cc0000" fill-rule="evenodd" stroke="none"/>
      <path d="M-2.95 -4.2 L1.7 -5.05 6.9 2.9 4.4 5.0 0.95 3.65 -2.95 -4.2" fill="#ffffff" fill-rule="evenodd" stroke="none"/>
      <path d="M-6.9 -3.5 L-2.95 -4.2 1.7 -5.05 M6.9 2.9 L4.4 5.0 0.95 3.65 -4.3 1.5 -6.9 -3.2" fill="none" stroke="#000000" stroke-linecap="round" stroke-linejoin="round" stroke-width="1.0"/>
    </g>
  </defs>
</svg>
